app/assets/images/heroicons/micro/phone-x-mark.svg

<svg width="16" height="16" viewBox="0 0 16 16" fill="none" xmlns="http://www.w3.org/2000/svg">
<path d="M3.85462 7.28621L4.92241 6.75232C5.31094 6.55806 5.52962 6.13518 5.46357 5.70584L5.02389 2.84794C4.94884 2.36011 4.52909 2 4.03552 2H3C2.44772 2 2 2.44772 2 3V5C2 5.70879 2.08208 6.39936 2.23758 7.06237C3.01505 10.3773 5.62265 12.985 8.93763 13.7624C9.60064 13.9179 10.2912 14 11 14H13C13.5523 14 14 13.5523 14 13V11.9645C14 11.4709 13.6399 11.0512 13.1521 10.9761L10.2942 10.5364C9.86482 10.4704 9.44195 10.6891 9.24768 11.0776L8.71379 12.1454C6.4109 11.4092 4.59083 9.58911 3.85462 7.28621Z" fill="black"/>
<path d="M13.7803 2.21967C14.0732 2.51256 14.0732 2.98744 13.7803 3.28033L12.5607 4.5L13.7803 5.71967C14.0732 6.01256 14.0732 6.48744 13.7803 6.78033C13.4874 7.07322 13.0126 7.07322 12.7197 6.78033L11.5 5.56066L10.2803 6.78033C9.98744 7.07322 9.51256 7.07322 9.21967 6.78033C8.92678 6.48744 8.92678 6.01256 9.21967 5.71967L10.4393 4.5L9.21967 3.28033C8.92678 2.98744 8.92678 2.51256 9.21967 2.21967C9.51256 1.92678 9.98744 1.92678 10.2803 2.21967L11.5 3.43934L12.7197 2.21967C13.0126 1.92678 13.4874 1.92678 13.7803 2.21967Z" fill="black"/>
</svg>

<svg xmlns="http://www.w3.org/2000/svg" viewBox="0 0 16 16" fill="currentColor" aria-hidden="true" data-slot="icon">
  <path d="m3.855 7.286 1.067-.534a1 1 0 0 0 .542-1.046l-.44-2.858A1 1 0 0 0 4.036 2H3a1 1 0 0 0-1 1v2c0 .709.082 1.4.238 2.062a9.012 9.012 0 0 0 6.7 6.7A9.024 9.024 0 0 0 11 14h2a1 1 0 0 0 1-1v-1.036a1 1 0 0 0-.848-.988l-2.858-.44a1 1 0 0 0-1.046.542l-.534 1.067a7.52 7.52 0 0 1-4.86-4.859Z"/>
  <path d="M13.78 2.22a.75.75 0 0 1 0 1.06L12.56 4.5l1.22 1.22a.75.75 0 0 1-1.06 1.06L11.5 5.56l-1.22 1.22a.75.75 0 1 1-1.06-1.06l1.22-1.22-1.22-1.22a.75.75 0 0 1 1.06-1.06l1.22 1.22 1.22-1.22a.75.75 0 0 1 1.06 0Z"/>
</svg>
